public/media/landing-bg.svg

<svg fill="none" height="357" viewBox="0 0 1440 357" width="1440" xmlns="http://www.w3.org/2000/svg" xmlns:xlink="http://www.w3.org/1999/xlink"><mask id="a" height="357" maskUnits="userSpaceOnUse" width="1440" x="0" y="0"><path d="m0 0h1440v357h-1440z" fill="#1b3371"/></mask><path d="m0 0h1440v357h-1440z" fill="#1b3371"/><g mask="url(#a)" stroke="#ffbcce"><path d="m70.1055-9c0 38.6855-31.1418 70-69.500031 70-38.358269 0-69.499969-31.3145-69.499969-70s31.1417-70 69.499969-70c38.358231 0 69.500031 31.3145 69.500031 70z" stroke-width="8"/><path d="m109.605 327.5c0 37.52-30.6328 68-68.4995 68-37.86675 0-68.5-30.48-68.5-68s30.63325-68 68.5-68c37.8667 0 68.4995 30.48 68.4995 68z" stroke-width="11"/><path d="m748.605 80c0 37.867-30.479 68.5-68 68.5-37.52 0-68-30.633-68-68.5 0-37.8667 30.48-68.5 68-68.5 37.521 0 68 30.6333 68 68.5z" stroke-width="11"/><g stroke-width="8"><path d="m1379 350.5c0 24.616-19.74 44.5-44 44.5s-44-19.884-44-44.5 19.74-44.5 44-44.5 44 19.884 44 44.5z"/><path d="m1177.93 267.669c-25.34 6.79-51.33-8.032-58.05-33.104"/><path d="m1235.87 40c.77-1.3333 2.7-1.3333 3.47 0l50.66 87.75c.77 1.333-.19 3-1.73 3h-101.33c-1.54 0-2.5-1.667-1.73-3z"/><path d="m535.167 65.1662c1.145 1.03.745 2.9125-.719 3.3885l-96.361 31.3282c-1.464.4761-2.894-.8114-2.574-2.3174l21.049-99.11455c.32-1.50601 2.15-2.10104 3.294-1.07105z"/></g><path d="m824.447 348.244c.122.068.167.129.192.173.034.059.063.147.065.256s-.024.198-.056.258c-.024.045-.068.108-.187.179l-86.938 52.044c-.119.071-.195.079-.246.079-.068 0-.159-.019-.254-.072-.095-.052-.159-.12-.195-.177-.027-.044-.06-.113-.062-.252l-1.602-101.312c-.002-.139.029-.209.054-.253.034-.059.096-.128.189-.184s.184-.077.251-.08c.051-.001.128.005.249.072z" stroke-width="11"/></g></svg>

<svg width="1440" height="357" viewBox="0 0 1440 357" fill="none" xmlns="http://www.w3.org/2000/svg">
<mask id="mask0" mask-type="alpha" maskUnits="userSpaceOnUse" x="0" y="0" width="1440" height="357">
<rect x="0.5" y="0.5" width="1439" height="356" fill="#1B3371" stroke="#FFBCCE"/>
</mask>
<g mask="url(#mask0)">
<path d="M70.1055 -9C70.1055 29.6855 38.9637 61 0.605469 61C-37.7528 61 -68.8945 29.6855 -68.8945 -9C-68.8945 -47.6855 -37.7528 -79 0.605469 -79C38.9637 -79 70.1055 -47.6855 70.1055 -9Z" stroke="#FFBCCE" stroke-width="8"/>
<path d="M109.605 327.5C109.605 365.02 78.9722 395.5 41.1055 395.5C3.23875 395.5 -27.3945 365.02 -27.3945 327.5C-27.3945 289.98 3.23875 259.5 41.1055 259.5C78.9722 259.5 109.605 289.98 109.605 327.5Z" stroke="#FFBCCE" stroke-width="11"/>
<path d="M748.605 80C748.605 117.867 718.126 148.5 680.605 148.5C643.085 148.5 612.605 117.867 612.605 80C612.605 42.1333 643.085 11.5 680.605 11.5C718.126 11.5 748.605 42.1333 748.605 80Z" stroke="#FFBCCE" stroke-width="11"/>
<path d="M1379 350.5C1379 375.116 1359.26 395 1335 395C1310.74 395 1291 375.116 1291 350.5C1291 325.884 1310.74 306 1335 306C1359.26 306 1379 325.884 1379 350.5Z" stroke="#FFBCCE" stroke-width="8"/>
<path d="M1177.93 267.669C1152.59 274.459 1126.6 259.637 1119.88 234.565" stroke="#FFBCCE" stroke-width="8"/>
<path d="M1235.87 40C1236.64 38.6667 1238.57 38.6667 1239.34 40L1290 127.75C1290.77 129.083 1289.81 130.75 1288.27 130.75H1186.94C1185.4 130.75 1184.44 129.083 1185.21 127.75L1235.87 40Z" stroke="#FFBCCE" stroke-width="8"/>
<path d="M535.167 65.1662C536.312 66.1962 535.912 68.0787 534.448 68.5547L438.087 99.8829C436.623 100.359 435.193 99.0715 435.513 97.5655L456.562 -1.54905C456.882 -3.05506 458.712 -3.65009 459.856 -2.6201L535.167 65.1662Z" stroke="#FFBCCE" stroke-width="8"/>
<path d="M824.447 348.244C824.569 348.312 824.614 348.373 824.639 348.417C824.673 348.476 824.702 348.564 824.704 348.673C824.706 348.782 824.68 348.871 824.648 348.931C824.624 348.976 824.58 349.039 824.461 349.11L737.523 401.154C737.404 401.225 737.328 401.233 737.277 401.233C737.209 401.233 737.118 401.214 737.023 401.161C736.928 401.109 736.864 401.041 736.828 400.984C736.801 400.94 736.768 400.871 736.766 400.732L735.164 299.42C735.162 299.281 735.193 299.211 735.218 299.167C735.252 299.108 735.314 299.039 735.407 298.983C735.5 298.927 735.591 298.906 735.658 298.903C735.709 298.902 735.786 298.908 735.907 298.975L824.447 348.244Z" stroke="#FFBCCE" stroke-width="11"/>
</g>
</svg>
